plugins/kotlin/frontend-independent/resources/org/jetbrains/kotlin/idea/icons/objectKotlin.svg

<svg xmlns="http://www.w3.org/2000/svg" width="16" height="16" viewBox="0 0 16 16">
  <defs>
    <linearGradient id="objectkotlin-a" x1="-16.836%" x2="76.219%" y1="91.94%" y2="-1.116%">
      <stop offset="10.75%" stop-color="#C757BC"/>
      <stop offset="21.38%" stop-color="#D0609A"/>
      <stop offset="42.54%" stop-color="#E1725C"/>
      <stop offset="60.48%" stop-color="#EE7E2F"/>
      <stop offset="74.3%" stop-color="#F58613"/>
      <stop offset="82.32%" stop-color="#F88909"/>
    </linearGradient>
  </defs>
  <g fill="none" fill-rule="evenodd">
    <path fill="#F4AF3D" fill-opacity=".6" d="M8,15 C4.134,15 1,11.866 1,8 C1,4.134 4.134,1 8,1 C11.866,1 15,4.134 15,8 L8,8 L8,15 Z"/>
    <path fill="#231F20" fill-opacity=".7" d="M11,8 L9.94262295,8 C9.94262295,6.87292818 9.13114754,5.94475138 7.99180328,5.94475138 C6.85245902,5.94475138 6.05737705,6.85635359 6.05737705,7.98342541 L6.05737705,8 C6.05737705,9.12436714 6.86496247,10.0507927 8,10.0552326 L8,10.9999908 C7.997269,10.9999967 7.99453676,11 7.99180328,11 C6.2295082,11 5,9.64917127 5,8.01657459 L5,8 C5,6.36740331 6.24590164,5 8.00819672,5 C9.7704918,5 11,6.35082873 11,7.98342541 L11,8 Z"/>
    <g transform="translate(9 9)">
      <polygon fill="#0EAEFF" fill-rule="nonzero" points="0 7 3.512 3.488 7 7"/>
      <polygon fill="#0EAEFF" fill-rule="nonzero" points="0 0 3.512 0 0 3.792"/>
      <polygon fill="url(#objectkotlin-a)" fill-rule="nonzero" points="3.512 0 0 3.698 0 7 3.512 3.488 7 0"/>
    </g>
  </g>
</svg>

<?xml version="1.0" encoding="utf-8"?>
<!-- Generator: Adobe Illustrator 24.1.2, SVG Export Plug-In . SVG Version: 6.00 Build 0)  -->
<svg version="1.2" baseProfile="tiny" id="Layer_1" xmlns="http://www.w3.org/2000/svg" xmlns:xlink="http://www.w3.org/1999/xlink"
	 x="0px" y="0px" viewBox="0 0 16 16" overflow="visible" xml:space="preserve">
<g>
	<path fill-rule="evenodd" fill="#F4AF3D" fill-opacity="0.6" d="M8,15c-3.9000001,0-7-3.1000004-7-7s3.0999999-7,7-7
		s7,3.0999999,7,7H8V15z"/>
	<path fill-rule="evenodd" fill="#231F20" fill-opacity="0.7" d="M11,8H9.8999996c0-1.0999999-0.8000002-2.0999999-2-2.0999999
		S6.0999999,6.9000001,6.0999999,8l0,0c0,1.1000004,0.8000002,2.1000004,1.9000001,2.1000004V11l0,0c-1.8000002,0-3-1.3999996-3-3
		l0,0c0-1.5999999,1.1999998-3,3-3S11,6.4000001,11,8L11,8z"/>
	<polygon fill="#7F52FF" points="16,16 9,16 9,9 16,9 12.3999996,12.3999996 	"/>
</g>
</svg>
